assets/icons/refresh.svg

<svg width="25" height="25" viewBox="0 0 25 25" fill="none" xmlns="http://www.w3.org/2000/svg">
<g id="refresh">
<path id="iconDefault" fill-rule="evenodd" clip-rule="evenodd" d="M12.2916 5.625C9.63933 5.625 7.26977 6.83308 5.70209 8.73132C5.48229 8.99747 5.08835 9.03504 4.8222 8.81524C4.55605 8.59544 4.51848 8.2015 4.73828 7.93535C6.53324 5.76191 9.25072 4.375 12.2916 4.375C15.5457 4.375 18.4281 5.96223 20.2084 8.40366V6.66667C20.2084 6.32149 20.4882 6.04167 20.8334 6.04167C21.1785 6.04167 21.4584 6.32149 21.4584 6.66667V10.8333C21.4584 11.1785 21.1785 11.4583 20.8334 11.4583H16.4583C16.1131 11.4583 15.8333 11.1785 15.8333 10.8333C15.8333 10.4882 16.1131 10.2083 16.4583 10.2083H19.8629C18.4351 7.48314 15.5797 5.625 12.2916 5.625ZM3.54169 15.8333C3.54169 15.4882 3.82151 15.2083 4.16669 15.2083H8.54179C8.88696 15.2083 9.16679 15.4882 9.16679 15.8333C9.16679 16.1785 8.88696 16.4583 8.54179 16.4583H5.13719C6.56491 19.1835 9.42032 21.0417 12.7085 21.0417C15.3607 21.0417 17.7303 19.8336 19.2979 17.9353C19.5177 17.6692 19.9117 17.6316 20.1778 17.8514C20.444 18.0712 20.4816 18.4652 20.2618 18.7313C18.4668 20.9048 15.7493 22.2917 12.7085 22.2917C9.45435 22.2917 6.57191 20.7044 4.79169 18.263V20C4.79169 20.3452 4.51186 20.625 4.16669 20.625C3.82151 20.625 3.54169 20.3452 3.54169 20V15.8333Z" fill="#18303F"/>
</g>
</svg>

<svg width="25" height="25" viewBox="0 0 25 25" fill="none"><g id="refresh"><path id="iconDefault" fill-rule="evenodd" clip-rule="evenodd" d="M12.292 5.625a8.523 8.523 0 0 0-6.59 3.106.625.625 0 1 1-.964-.796 9.773 9.773 0 0 1 7.554-3.56 9.778 9.778 0 0 1 7.916 4.029V6.667a.625.625 0 1 1 1.25 0v4.166c0 .345-.28.625-.625.625h-4.375a.625.625 0 1 1 0-1.25h3.405a8.541 8.541 0 0 0-7.571-4.583Zm-8.75 10.208c0-.345.28-.625.625-.625h4.375a.625.625 0 0 1 0 1.25H5.137a8.541 8.541 0 0 0 7.572 4.584 8.523 8.523 0 0 0 6.589-3.107.625.625 0 0 1 .964.796 9.773 9.773 0 0 1-7.553 3.56 9.778 9.778 0 0 1-7.917-4.028V20a.625.625 0 1 1-1.25 0v-4.167Z" fill="#18303F"/></g></svg>
